X:558
T: SO ZIEHEN WIR SCHEIDEND ZUM THORE HINAUS
N: F1100
O: Europa, Mitteleuropa, Deutschland
R: Kriegs - Lied, national, Abschied
M: 3/4
L: 1/8
K: A
E2 | c3BA2 | E3FE2 | E3FGA | B4
E2 | d2c2B2 | A2G2F2 | E2c2B2 | A4
EG | B3cB2 | B3cB2 | B2e2d2 | c4
AB | c2B2c2 | d2F2B2 | A2c2B2 | A4
EG | B3cB2 | B3cB2 | B2e2d2 | c4
AB | c2B2c2 | d2F2B2 | A2c2B2 | A4

@@@ Tune index: 5989
